icons/uEA1B-draft_14x18.svg

<svg xmlns="http://www.w3.org/2000/svg" viewBox="0 0 32 32"><path d="M21.26 0H4.93c-.76 0-1.37.6-1.37 1.33v29.33c0 .74.61 1.34 1.37 1.34h22.15c.76 0 1.37-.6 1.37-1.33V6.99L21.26 0zm1.85 24.89H8.89v-1.78h14.22v1.78zm0-5.33H8.89v-1.78h14.22v1.78zm0-5.34H8.89v-1.78h14.22v1.78z"/></svg>

<?xml version="1.0" encoding="utf-8"?>
<!-- Generator: Adobe Illustrator 19.1.0, SVG Export Plug-In . SVG Version: 6.00 Build 0)  -->
<svg version="1.1" id="icones" xmlns="http://www.w3.org/2000/svg" xmlns:xlink="http://www.w3.org/1999/xlink" x="0px" y="0px"
	 viewBox="0 0 32 32" enable-background="new 0 0 32 32" xml:space="preserve">
<g>
	<g>
		<path d="M21.26,0H4.93C4.17,0,3.56,0.6,3.56,1.33v29.33C3.56,31.4,4.17,32,4.93,32h22.15c0.76,0,1.37-0.6,1.37-1.33V6.99L21.26,0z
			 M23.11,24.89H8.89v-1.78h14.22V24.89z M23.11,19.56H8.89v-1.78h14.22V19.56z M23.11,14.22H8.89v-1.78h14.22V14.22z"/>
	</g>
</g>
</svg>
